public/icons/shield-icon.svg

<svg width="106" height="106" viewBox="0 0 106 106" fill="none" xmlns="http://www.w3.org/2000/svg">
<path d="M52.9998 97.1667C42.7679 94.5903 34.3203 88.7191 27.657 79.553C20.9937 70.387 17.6636 60.211 17.6665 49.025V22.0834L52.9998 8.83337L88.3332 22.0834V49.025C88.3332 60.2139 85.003 70.3914 78.3427 79.5575C71.6823 88.7235 63.2347 94.5933 52.9998 97.1667ZM52.9998 87.8917C60.6554 85.4625 66.986 80.6042 71.9915 73.3167C76.9971 66.0292 79.4998 57.932 79.4998 49.025V28.1563L52.9998 18.2188L26.4998 28.1563V49.025C26.4998 57.932 29.0026 66.0292 34.0082 73.3167C39.0137 80.6042 45.3443 85.4625 52.9998 87.8917Z" fill="#1A4F8E"/>
</svg>

<svg xmlns="http://www.w3.org/2000/svg" width="106" height="106" fill="none"><path fill="#1A4F8E" d="M53 97.167q-15.348-3.865-25.343-17.614t-9.99-30.528V22.083L53 8.833l35.333 13.25v26.942q0 16.783-9.99 30.533Q68.353 93.306 53 97.167m0-9.275q11.483-3.645 18.992-14.575Q79.5 62.385 79.5 49.025V28.156L53 18.22l-26.5 9.937v20.869q0 13.36 7.508 24.292Q41.516 84.248 53 87.892"/></svg>
